X: 442
T: Bu Gece Ben Yine...
C: Dede Efendi
O: Turkey
F: http://compmusic.upf.edu/node/140
N: ferahfeza--yuruksemai--yuruksemai_ii--bu_gece_ben--dede_efendi
N: makam= ferahfeza
N: form= yuruksemai
N: usul= yuruksemai_ii = 6/8
M: 6/8
L: 1/16
K: C _B   
Q: 1/4=99
%%MIDI tuningsystem comma53
f8 a2g2g2f2 f6z2  | e4f12 f2e4d2  | e3dc4 d4e4 f8  | \
w:  Ah  bu  *  ge *  ce   |  ben   |  *  *  *  yi ne  bül  | 
z4f4 f4g4 a4g2f2  | 
w:  bül le ri  hâ  | 
c'2b2a2g2 g2f2{g}f2e2 f6z2  | f8 a2g2g2f2 f6z2  | \
w:  mûş  *  *  *  et *  *  *  *  tim    |  Ah  bu  *  ge *  ce   | 
e4f14e4d2  | 
w:  ben   | 
e3dc4 d4e4 f8  | z4f4 f4g4 a4g2f2  | \
w:  *  *  *  yi ne  bül  |  bül le ri  hâ  | 
c'2b2a2g2 g2f2{g}f2e2 f6e2  | 
w:  mûş  *  *  *  et *  *  *  *  tim    | 
d6e2 f4{g}f2e2 e2d2{e}d2^c2  | d4b4 a4g4 a2g2f2e2  | \
w:  Serv_ *  i  *  bü *  len  |  dim  âh   | 
d6e2 f4{g}f2e2 e2d2{e}d2^c2  | 
w:  iş *  ve  *  pe *  sen  | 
d8 A4B2^c2 d6z2  | b3ag2b2 a3gf2a2 g3fe2g2  | \
w:  dim   SAZ  |  Gel   | 
e4f4 f2e2_1/4e2d2 _3/4e3dc4  | 
w:  gel   | 
g^fg2a3g g3f_7/8e2d2 e3dc4  | _1/4B4c8-c2z2 f8  | \
w:  ken *  *  *  *  di  *  e *  fen  |  dim   *  Dil   | 
f8 f4f2e2 g3fe2g2  | 
w:  sen de  gö *  züm   | 
f2e2e4 e4e2d2 d4c2_1/4B2  | c4_1/4B4 c4d2e2 d4c2B2  | \
w:  *  *  hüs nü ne  *  hay  |  ret  *  de  a *  man    | 
_1/4B2A2{c}B2A2 A12z4  | 
w:   | 
A8 B2A2G4 A4{c}B4  | A4G4 F4E2F2 A2G2F2E2  | \
w:  Naz lı  *  ce nâ  |  nım   | 
D6E2 F4{G}F2E2 E2D2{E}D2^C2  | 
w:  ka *  şı  *  ke mâ  | 
D12c2de f8  | f8 a2g2g2f2 f6z2  | e4f12 f2e4d2  | \
w:  nım   SAZ  |  Ah  bu  *  ge *  ce   |  ben   | 
e3dc4 d4e4 f8  | 
w:  *  *  *  yi ne  bül  | 
z4f4 f4g4 a4g2f2  | c'2b2a2g2 g2f2{g}f2e2 f6z2  | \
w:  bül le ri  hâ  |  mûş  *  *  *  et *  *  *  *  tim    | 
f8 a2g2g2f2 f6z2  | 
w:  Ah  bu  *  ge *  ce   | 
e4f14e4d2  | e3dc4 d4e4 f8  | z4f4 f4g4 a4g2f2  | \
w:  ben   |  *  *  *  yi ne  bül  |  bül le ri  hâ  | 
c'2b2a2g2 g2f2{g}f2e2 f6e2  | 
w:  mûş  *  *  *  et *  *  *  *  tim    | 
d6e2 f4{g}f2e2 e2d2{e}d2^c2  | d4b4 a4g4 a2g2f2e2  | \
w:  Serv_ *  i  *  bü *  len  |  dim  âh   | 
d6e2 f4{g}f2e2 e2d2{e}d2^c2  | 
w:  iş *  ve  *  pe *  sen  | 
d8 A4B2^c2 d6z2  | b3ag2b2 a3gf2a2 g3fe2g2  | \
w:  dim   SAZ  |  Gel   | 
e4f4 f2e2_1/4e2d2 _3/4e3dc4  | 
w:  gel   | 
g^fg2a3g g3f_7/8e2d2 e3dc4  | _1/4B4c8-c2z2 f8  | \
w:  ken *  *  *  *  di  *  e *  fen  |  dim   *  Dil   | 
f8 f4f2e2 g3fe2g2  | 
w:  sen de  gö *  züm   | 
f2e2e4 e4e2d2 d4c2_1/4B2  | c4_1/4B4 c4d2e2 d4c2B2  | \
w:  *  *  hüs nü ne  *  hay  |  ret  *  de  a *  man    | 
_1/4B2A2{c}B2A2 A12z4  | 
w:   | 
A8 B2A2G4 A4{c}B4  | A4G4 F4E2F2 A2G2F2E2  | \
w:  Naz lı  *  ce nâ  |  nım   | 
D6E2 F4{G}F2E2 E2D2{E}D2^C2  | 
w:  ka *  şı  *  ke mâ  | 
D12f2g2 a8  | a8 g4g4 a8  | a2c'2_1/4b2a2 a4a4 a4{_b}a2g2  | \
w:  nım   SAZ  |  Ah  tâk_ i  ef  |  lâ  | 
g4f4 g2b2a2g2 f3ed4  | 
w:  *  *  ke  *  re *  sîd   | 
z4g4 g4g4 g2_7/8a2g2f2  | g4d'4 c'2_1/4b2b2a2 a6z2  | \
w:  ol du  yi ne   |  nağ *  me  *  i  *  âh    | 
a8 g4g4 a8  | a2c'2_1/4b2a2 a4a4 a4{_b}a2g2  | 
w:  Ah  tâk_ i  ef  |  lâ  | 
g4f4 g2b2a2g2 f3ed4  | z4g4 g4g4 g2_7/8a2g2f2  | \
w:  *  *  ke  *  re *  sîd   |  ol du  yi ne   | 
g2_7/8a2g2f2 a2g2f2e2 f6z2  | 
w:  nağ *  *  *  me  *  i  *  âh    | 
f8 a2g2g2f2 f6z2  | e4f12 f2e4d2  | e3dc4 d4e4 f8  | \
w:  Ah  bül *  bül  *  â  |  sâ   |  *  *  *  ge ce  tâ   | 
z4f4 f4g4 a4g2f2  | 
w:  sûb ha  ka dar   | 
c'2b2a2g2 g2f2{g}f2e2 f6e2  | f8 a2g2g2f2 f6z2  | \
w:  cûş  *  *  *  et *  *  *  *  tim    |  Ah  bül *  bül  *  â  | 
e4f12 f2e4d2  | 
w:  sâ   | 
e3dc4 d4e4 f8  | z4f4 f4g4 a4g2f2  | \
w:  *  *  *  ge ce  tâ   |  sûb ha  ka dar   | 
c'2b2a2g2 g2f2{g}f2e2 f6e2  | 
w:  cûş  *  *  *  et *  *  *  *  tim    | 
d6e2 f4{g}f2e2 e2d2{e}d2^c2  | d4b4 a4g4 a2g2f2e2  | \
w:  Serv_ *  i  *  bü *  len  |  dim  âh   | 
d6e2 f4{g}f2e2 e2d2{e}d2^c2  | 
w:  iş *  ve  *  pe *  sen  | 
d8 A4B2^c2 d6z2  | b3ag2b2 a3gf2a2 g3fe2g2  | \
w:  dim   SAZ  |  Gel   | 
e4f4 f2e2_1/4e2d2 _3/4e3dc4  | 
w:  gel   | 
g^fg2a3g g3f_7/8e2d2 e3dc4  | _1/4B4c8-c2z2 f8  | \
w:  ken *  *  *  *  di  *  e *  fen  |  dim   *  Dil   | 
f8 f4f2e2 g3fe2g2  | 
w:  sen de  gö *  züm   | 
f2e2e4 e4e2d2 d4c2_1/4B2  | c4_1/4B4 c4d2e2 d4c2B2  | \
w:  *  *  hüs nü ne  *  hay  |  ret  *  de  a *  man    | 
_1/4B2A2{c}B2A2 A12z4  | 
w:   | 
A8 B2A2G4 A4{c}B4  | A4G4 F4E2F2 A2G2F2E2  | \
w:  Naz lı  *  ce nâ  |  nım   | 
D6E2 F4{G}F2E2 E2D2{E}D2^C2  | 
w:  ka *  şı  *  ke mâ  | 
D12|
w:  nım    | 


